X:158
T:Calder Fair TS.158
M:C|
L:1/8
Q:1/4=120
S:Thomas Sands’ MS,1810,Lincolnshire
R:song
O:England;Lincolnshire
Z:vmp.Ruairidh Greig, 2011
K:C
B|cBAG A<cE2|G2GEG2>B2|cBAG A<cE2|D<E F<GA2:|
G|(Gc).c.cc2.c.c|(Ad).d.dd2(cd)|edcB cBAG|AcBdc2>G2|
w:If you had fol-lowed wis-dom as I have fol-lowd care, You-‘d ne’er have lost your mai-den-head by going to Cald-er fair
(Gc).c.c c2cc|(Ad).d.dd2 cd|edcB cBAG|AcBdc2:|]

